images/3247300.svg

<?xml version="1.0" encoding="UTF-8"?>
<svg xmlns="http://www.w3.org/2000/svg" xmlns:xlink="http://www.w3.org/1999/xlink" width="300pt" height="300pt" viewBox="0 0 300 300" version="1.1">
<defs>
<g>
<symbol overflow="visible" id="glyph0-0">
<path style="stroke:none;" d="M 0.453125 1.59375 L 0.453125 -6.34375 L 4.953125 -6.34375 L 4.953125 1.59375 Z M 0.953125 1.09375 L 4.453125 1.09375 L 4.453125 -5.84375 L 0.953125 -5.84375 Z M 0.953125 1.09375 "/>
</symbol>
<symbol overflow="visible" id="glyph0-1">
<path style="stroke:none;" d="M 3.546875 -5.953125 C 2.898438 -5.953125 2.382812 -5.710938 2 -5.234375 C 1.625 -4.753906 1.4375 -4.101562 1.4375 -3.28125 C 1.4375 -2.445312 1.625 -1.789062 2 -1.3125 C 2.382812 -0.832031 2.898438 -0.59375 3.546875 -0.59375 C 4.191406 -0.59375 4.703125 -0.832031 5.078125 -1.3125 C 5.453125 -1.789062 5.640625 -2.445312 5.640625 -3.28125 C 5.640625 -4.101562 5.453125 -4.753906 5.078125 -5.234375 C 4.703125 -5.710938 4.191406 -5.953125 3.546875 -5.953125 Z M 3.546875 -6.6875 C 4.460938 -6.6875 5.195312 -6.375 5.75 -5.75 C 6.300781 -5.132812 6.578125 -4.3125 6.578125 -3.28125 C 6.578125 -2.238281 6.300781 -1.410156 5.75 -0.796875 C 5.195312 -0.179688 4.460938 0.125 3.546875 0.125 C 2.617188 0.125 1.878906 -0.179688 1.328125 -0.796875 C 0.773438 -1.410156 0.5 -2.238281 0.5 -3.28125 C 0.5 -4.3125 0.773438 -5.132812 1.328125 -5.75 C 1.878906 -6.375 2.617188 -6.6875 3.546875 -6.6875 Z M 3.546875 -6.6875 "/>
</symbol>
<symbol overflow="visible" id="glyph0-2">
<path style="stroke:none;" d="M 0.890625 -6.5625 L 2.078125 -6.5625 L 4.984375 -1.078125 L 4.984375 -6.5625 L 5.84375 -6.5625 L 5.84375 0 L 4.65625 0 L 1.75 -5.484375 L 1.75 0 L 0.890625 0 Z M 0.890625 -6.5625 "/>
</symbol>
<symbol overflow="visible" id="glyph0-3">
<path style="stroke:none;" d="M 0.890625 -6.5625 L 1.765625 -6.5625 L 1.765625 -3.875 L 5 -3.875 L 5 -6.5625 L 5.890625 -6.5625 L 5.890625 0 L 5 0 L 5 -3.125 L 1.765625 -3.125 L 1.765625 0 L 0.890625 0 Z M 0.890625 -6.5625 "/>
</symbol>
<symbol overflow="visible" id="glyph0-4">
<path style="stroke:none;" d="M 1.765625 -5.828125 L 1.765625 -3.359375 L 2.890625 -3.359375 C 3.296875 -3.359375 3.613281 -3.46875 3.84375 -3.6875 C 4.070312 -3.90625 4.1875 -4.207031 4.1875 -4.59375 C 4.1875 -4.988281 4.070312 -5.289062 3.84375 -5.5 C 3.613281 -5.71875 3.296875 -5.828125 2.890625 -5.828125 Z M 0.890625 -6.5625 L 2.890625 -6.5625 C 3.617188 -6.5625 4.171875 -6.394531 4.546875 -6.0625 C 4.929688 -5.726562 5.125 -5.238281 5.125 -4.59375 C 5.125 -3.945312 4.929688 -3.457031 4.546875 -3.125 C 4.171875 -2.800781 3.617188 -2.640625 2.890625 -2.640625 L 1.765625 -2.640625 L 1.765625 0 L 0.890625 0 Z M 0.890625 -6.5625 "/>
</symbol>
</g>
</defs>
<g id="surface45477">
<rect x="0" y="0" width="300" height="300" style="fill:rgb(100%,100%,100%);fill-opacity:1;stroke:none;"/>
<path style="fill:none;stroke-width:1.2;stroke-linecap:butt;stroke-linejoin:miter;stroke:rgb(0%,0%,0%);stroke-opacity:1;stroke-miterlimit:10;" d="M 35.25 100.773438 L 48.585938 119.546875 "/>
<path style="fill:none;stroke-width:1.2;stroke-linecap:butt;stroke-linejoin:miter;stroke:rgb(0%,0%,0%);stroke-opacity:1;stroke-miterlimit:10;" d="M 48.585938 119.546875 L 41.238281 141.371094 "/>
<path style="fill:none;stroke-width:1.2;stroke-linecap:butt;stroke-linejoin:miter;stroke:rgb(0%,0%,0%);stroke-opacity:1;stroke-miterlimit:10;" d="M 52.988281 123.460938 L 47.109375 140.917969 "/>
<path style="fill:none;stroke-width:1.2;stroke-linecap:butt;stroke-linejoin:miter;stroke:rgb(100%,0%,0%);stroke-opacity:1;stroke-miterlimit:10;" d="M 71.613281 119.792969 L 60.101562 119.671875 "/>
<path style="fill:none;stroke-width:1.2;stroke-linecap:butt;stroke-linejoin:miter;stroke:rgb(0%,0%,0%);stroke-opacity:1;stroke-miterlimit:10;" d="M 60.101562 119.671875 L 48.585938 119.546875 "/>
<path style="fill:none;stroke-width:1.2;stroke-linecap:butt;stroke-linejoin:miter;stroke:rgb(0%,0%,0%);stroke-opacity:1;stroke-miterlimit:10;" d="M 41.238281 141.371094 L 59.722656 155.105469 "/>
<path style="fill:none;stroke-width:1.2;stroke-linecap:butt;stroke-linejoin:miter;stroke:rgb(0%,0%,0%);stroke-opacity:1;stroke-miterlimit:10;" d="M 59.722656 155.105469 L 78.5 141.769531 "/>
<path style="fill:none;stroke-width:1.2;stroke-linecap:butt;stroke-linejoin:miter;stroke:rgb(0%,0%,0%);stroke-opacity:1;stroke-miterlimit:10;" d="M 58.464844 149.355469 L 73.484375 138.683594 "/>
<path style="fill:none;stroke-width:1.2;stroke-linecap:butt;stroke-linejoin:miter;stroke:rgb(0%,0%,0%);stroke-opacity:1;stroke-miterlimit:10;" d="M 78.5 141.769531 L 75.058594 130.78125 "/>
<path style="fill:none;stroke-width:1.2;stroke-linecap:butt;stroke-linejoin:miter;stroke:rgb(100%,0%,0%);stroke-opacity:1;stroke-miterlimit:10;" d="M 75.058594 130.78125 L 71.613281 119.792969 "/>
<path style="fill:none;stroke-width:1.2;stroke-linecap:butt;stroke-linejoin:miter;stroke:rgb(0%,0%,0%);stroke-opacity:1;stroke-miterlimit:10;" d="M 78.5 141.769531 L 100.324219 149.117188 "/>
<path style=" stroke:none;fill-rule:nonzero;fill:rgb(100%,100%,100%);fill-opacity:1;" d="M 67.613281 114.292969 L 75.613281 114.292969 L 75.613281 125.292969 L 67.613281 125.292969 Z M 67.613281 114.292969 "/>
<g style="fill:rgb(100%,0%,0%);fill-opacity:1;">
  <use xlink:href="#glyph0-1" x="67.613281" y="122.956055"/>
</g>
<path style="fill:none;stroke-width:1.2;stroke-linecap:butt;stroke-linejoin:miter;stroke:rgb(0%,0%,0%);stroke-opacity:1;stroke-miterlimit:10;" d="M 100.324219 149.117188 L 108.960938 141.503906 "/>
<path style="fill:none;stroke-width:1.2;stroke-linecap:butt;stroke-linejoin:miter;stroke:rgb(0%,0%,100%);stroke-opacity:1;stroke-miterlimit:10;" d="M 108.960938 141.503906 L 117.601562 133.890625 "/>
<path style="fill:none;stroke-width:1.2;stroke-linecap:butt;stroke-linejoin:miter;stroke:rgb(0%,0%,100%);stroke-opacity:1;stroke-miterlimit:10;" d="M 117.601562 133.890625 L 128.511719 137.566406 "/>
<path style="fill:none;stroke-width:1.2;stroke-linecap:butt;stroke-linejoin:miter;stroke:rgb(0%,0%,0%);stroke-opacity:1;stroke-miterlimit:10;" d="M 128.511719 137.566406 L 139.425781 141.242188 "/>
<path style=" stroke:none;fill-rule:nonzero;fill:rgb(100%,100%,100%);fill-opacity:1;" d="M 110.601562 128.390625 L 124.601562 128.390625 L 124.601562 139.390625 L 110.601562 139.390625 Z M 110.601562 128.390625 "/>
<g style="fill:rgb(0%,0%,100%);fill-opacity:1;">
  <use xlink:href="#glyph0-2" x="110.601562" y="137.053711"/>
  <use xlink:href="#glyph0-3" x="117.579102" y="137.053711"/>
</g>
<path style="fill:none;stroke-width:1.2;stroke-linecap:butt;stroke-linejoin:miter;stroke:rgb(0%,0%,0%);stroke-opacity:1;stroke-miterlimit:10;" d="M 136.769531 141.773438 L 139.042969 153.0625 "/>
<path style="fill:none;stroke-width:1.2;stroke-linecap:butt;stroke-linejoin:miter;stroke:rgb(100%,0%,0%);stroke-opacity:1;stroke-miterlimit:10;" d="M 139.042969 153.0625 L 141.316406 164.351562 "/>
<path style="fill:none;stroke-width:1.2;stroke-linecap:butt;stroke-linejoin:miter;stroke:rgb(0%,0%,0%);stroke-opacity:1;stroke-miterlimit:10;" d="M 142.082031 140.707031 L 144.355469 151.992188 "/>
<path style="fill:none;stroke-width:1.2;stroke-linecap:butt;stroke-linejoin:miter;stroke:rgb(100%,0%,0%);stroke-opacity:1;stroke-miterlimit:10;" d="M 144.355469 151.992188 L 146.628906 163.28125 "/>
<path style=" stroke:none;fill-rule:nonzero;fill:rgb(0%,0%,0%);fill-opacity:1;" d="M 156.703125 126.011719 L 136.738281 138.191406 L 142.113281 144.289062 Z M 156.703125 126.011719 "/>
<path style=" stroke:none;fill-rule:nonzero;fill:rgb(100%,100%,100%);fill-opacity:1;" d="M 139.972656 158.316406 L 147.972656 158.316406 L 147.972656 169.316406 L 139.972656 169.316406 Z M 139.972656 158.316406 "/>
<g style="fill:rgb(100%,0%,0%);fill-opacity:1;">
  <use xlink:href="#glyph0-1" x="139.972656" y="166.979492"/>
</g>
<path style="fill:none;stroke-width:1.2;stroke-linecap:butt;stroke-linejoin:miter;stroke:rgb(0%,0%,0%);stroke-opacity:1;stroke-miterlimit:10;" d="M 156.703125 126.011719 L 164.050781 104.1875 "/>
<path style="fill:none;stroke-width:1.2;stroke-linecap:butt;stroke-linejoin:miter;stroke:rgb(0%,0%,0%);stroke-opacity:1;stroke-miterlimit:10;" d="M 179.277344 121.464844 L 156.703125 126.011719 "/>
<path style="fill:none;stroke-width:1;stroke-linecap:butt;stroke-linejoin:miter;stroke:rgb(0%,0%,0%);stroke-opacity:1;stroke-miterlimit:10;" d="M 179.277344 121.464844 L 179.277344 121.464844 M 177.714844 118.90625 L 176.933594 119.59375 M 176.152344 116.34375 L 174.589844 117.722656 M 174.589844 113.78125 L 172.246094 115.851562 M 173.027344 111.222656 L 169.898438 113.980469 M 171.464844 108.660156 L 167.554688 112.105469 M 169.90625 106.097656 L 165.210938 110.234375 M 168.34375 103.539062 L 162.867188 108.363281 M 167.101562 101.5 L 161.003906 106.875 "/>
<path style="fill:none;stroke-width:1.2;stroke-linecap:butt;stroke-linejoin:miter;stroke:rgb(0%,0%,0%);stroke-opacity:1;stroke-miterlimit:10;" d="M 179.277344 121.464844 L 201.101562 128.8125 "/>
<path style=" stroke:none;fill-rule:nonzero;fill:rgb(0%,0%,0%);fill-opacity:1;" d="M 201.101562 128.8125 L 221.066406 116.636719 L 215.691406 110.539062 Z M 201.101562 128.8125 "/>
<path style="fill:none;stroke-width:1.2;stroke-linecap:butt;stroke-linejoin:miter;stroke:rgb(0%,0%,0%);stroke-opacity:1;stroke-miterlimit:10;" d="M 201.101562 128.8125 L 203.378906 140.101562 "/>
<path style="fill:none;stroke-width:1.2;stroke-linecap:butt;stroke-linejoin:miter;stroke:rgb(0%,0%,100%);stroke-opacity:1;stroke-miterlimit:10;" d="M 203.378906 140.101562 L 205.652344 151.390625 "/>
<path style="fill:none;stroke-width:1.2;stroke-linecap:butt;stroke-linejoin:miter;stroke:rgb(0%,0%,0%);stroke-opacity:1;stroke-miterlimit:10;" d="M 218.378906 113.585938 L 240.207031 120.9375 "/>
<path style="fill:none;stroke-width:1.2;stroke-linecap:butt;stroke-linejoin:miter;stroke:rgb(0%,0%,0%);stroke-opacity:1;stroke-miterlimit:10;" d="M 222.292969 109.1875 L 239.75 115.066406 "/>
<path style="fill:none;stroke-width:1.2;stroke-linecap:butt;stroke-linejoin:miter;stroke:rgb(0%,0%,0%);stroke-opacity:1;stroke-miterlimit:10;" d="M 213.832031 91.011719 L 218.378906 113.585938 "/>
<path style="fill:none;stroke-width:1.2;stroke-linecap:butt;stroke-linejoin:miter;stroke:rgb(0%,0%,0%);stroke-opacity:1;stroke-miterlimit:10;" d="M 240.207031 120.9375 L 257.480469 105.710938 "/>
<path style="fill:none;stroke-width:1.2;stroke-linecap:butt;stroke-linejoin:miter;stroke:rgb(0%,0%,0%);stroke-opacity:1;stroke-miterlimit:10;" d="M 257.480469 105.710938 L 252.933594 83.132812 "/>
<path style="fill:none;stroke-width:1.2;stroke-linecap:butt;stroke-linejoin:miter;stroke:rgb(0%,0%,0%);stroke-opacity:1;stroke-miterlimit:10;" d="M 251.714844 104.523438 L 248.078125 86.460938 "/>
<path style="fill:none;stroke-width:1.2;stroke-linecap:butt;stroke-linejoin:miter;stroke:rgb(0%,0%,0%);stroke-opacity:1;stroke-miterlimit:10;" d="M 252.933594 83.132812 L 231.109375 75.785156 "/>
<path style="fill:none;stroke-width:1.2;stroke-linecap:butt;stroke-linejoin:miter;stroke:rgb(0%,0%,0%);stroke-opacity:1;stroke-miterlimit:10;" d="M 231.109375 75.785156 L 213.832031 91.011719 "/>
<path style="fill:none;stroke-width:1.2;stroke-linecap:butt;stroke-linejoin:miter;stroke:rgb(0%,0%,0%);stroke-opacity:1;stroke-miterlimit:10;" d="M 232.964844 81.375 L 219.140625 93.554688 "/>
<path style="fill:none;stroke-width:1.2;stroke-linecap:butt;stroke-linejoin:miter;stroke:rgb(0%,0%,100%);stroke-opacity:1;stroke-miterlimit:10;" d="M 205.652344 151.390625 L 216.5625 155.066406 "/>
<path style="fill:none;stroke-width:1.2;stroke-linecap:butt;stroke-linejoin:miter;stroke:rgb(100%,50%,0%);stroke-opacity:1;stroke-miterlimit:10;" d="M 216.5625 155.066406 L 227.476562 158.738281 "/>
<path style=" stroke:none;fill-rule:nonzero;fill:rgb(100%,100%,100%);fill-opacity:1;" d="M 198.652344 145.890625 L 212.652344 145.890625 L 212.652344 156.890625 L 198.652344 156.890625 Z M 198.652344 145.890625 "/>
<g style="fill:rgb(0%,0%,100%);fill-opacity:1;">
  <use xlink:href="#glyph0-2" x="198.652344" y="154.553711"/>
  <use xlink:href="#glyph0-3" x="205.629883" y="154.553711"/>
</g>
<path style="fill:none;stroke-width:1.2;stroke-linecap:butt;stroke-linejoin:miter;stroke:rgb(100%,50%,0%);stroke-opacity:1;stroke-miterlimit:10;" d="M 226.613281 161.308594 L 237.523438 164.980469 "/>
<path style="fill:none;stroke-width:1.2;stroke-linecap:butt;stroke-linejoin:miter;stroke:rgb(100%,0%,0%);stroke-opacity:1;stroke-miterlimit:10;" d="M 237.523438 164.980469 L 248.4375 168.65625 "/>
<path style="fill:none;stroke-width:1.2;stroke-linecap:butt;stroke-linejoin:miter;stroke:rgb(100%,50%,0%);stroke-opacity:1;stroke-miterlimit:10;" d="M 228.339844 156.171875 L 239.253906 159.847656 "/>
<path style="fill:none;stroke-width:1.2;stroke-linecap:butt;stroke-linejoin:miter;stroke:rgb(100%,0%,0%);stroke-opacity:1;stroke-miterlimit:10;" d="M 239.253906 159.847656 L 250.167969 163.519531 "/>
<path style="fill:none;stroke-width:1.2;stroke-linecap:butt;stroke-linejoin:miter;stroke:rgb(100%,50%,0%);stroke-opacity:1;stroke-miterlimit:10;" d="M 227.476562 158.738281 L 231.152344 147.828125 "/>
<path style="fill:none;stroke-width:1.2;stroke-linecap:butt;stroke-linejoin:miter;stroke:rgb(0%,0%,0%);stroke-opacity:1;stroke-miterlimit:10;" d="M 231.152344 147.828125 L 234.824219 136.914062 "/>
<path style="fill:none;stroke-width:1.2;stroke-linecap:butt;stroke-linejoin:miter;stroke:rgb(100%,50%,0%);stroke-opacity:1;stroke-miterlimit:10;" d="M 227.476562 158.738281 L 223.800781 169.652344 "/>
<path style="fill:none;stroke-width:1.2;stroke-linecap:butt;stroke-linejoin:miter;stroke:rgb(0%,0%,0%);stroke-opacity:1;stroke-miterlimit:10;" d="M 223.800781 169.652344 L 220.128906 180.5625 "/>
<path style=" stroke:none;fill-rule:nonzero;fill:rgb(100%,100%,100%);fill-opacity:1;" d="M 224.476562 153.238281 L 230.476562 153.238281 L 230.476562 164.238281 L 224.476562 164.238281 Z M 224.476562 153.238281 "/>
<g style="fill:rgb(100%,50%,0%);fill-opacity:1;">
  <use xlink:href="#glyph0-4" x="224.476562" y="161.901367"/>
</g>
<path style=" stroke:none;fill-rule:nonzero;fill:rgb(100%,100%,100%);fill-opacity:1;" d="M 245.300781 160.589844 L 253.300781 160.589844 L 253.300781 171.589844 L 245.300781 171.589844 Z M 245.300781 160.589844 "/>
<g style="fill:rgb(100%,0%,0%);fill-opacity:1;">
  <use xlink:href="#glyph0-1" x="245.300781" y="169.25293"/>
</g>
<path style="fill:none;stroke-width:1.2;stroke-linecap:butt;stroke-linejoin:miter;stroke:rgb(0%,0%,0%);stroke-opacity:1;stroke-miterlimit:10;" d="M 234.824219 136.914062 L 257.402344 132.367188 "/>
<path style="fill:none;stroke-width:1.2;stroke-linecap:butt;stroke-linejoin:miter;stroke:rgb(0%,0%,0%);stroke-opacity:1;stroke-miterlimit:10;" d="M 236.011719 131.148438 L 254.074219 127.507812 "/>
<path style="fill:none;stroke-width:1.2;stroke-linecap:butt;stroke-linejoin:miter;stroke:rgb(0%,0%,0%);stroke-opacity:1;stroke-miterlimit:10;" d="M 219.597656 119.636719 L 234.824219 136.914062 "/>
<path style="fill:none;stroke-width:1.2;stroke-linecap:butt;stroke-linejoin:miter;stroke:rgb(0%,0%,0%);stroke-opacity:1;stroke-miterlimit:10;" d="M 257.402344 132.367188 L 264.75 110.539062 "/>
<path style="fill:none;stroke-width:1.2;stroke-linecap:butt;stroke-linejoin:miter;stroke:rgb(0%,0%,0%);stroke-opacity:1;stroke-miterlimit:10;" d="M 264.75 110.539062 L 249.523438 93.261719 "/>
<path style="fill:none;stroke-width:1.2;stroke-linecap:butt;stroke-linejoin:miter;stroke:rgb(0%,0%,0%);stroke-opacity:1;stroke-miterlimit:10;" d="M 259.164062 112.394531 L 246.980469 98.574219 "/>
<path style="fill:none;stroke-width:1.2;stroke-linecap:butt;stroke-linejoin:miter;stroke:rgb(0%,0%,0%);stroke-opacity:1;stroke-miterlimit:10;" d="M 249.523438 93.261719 L 226.949219 97.8125 "/>
<path style="fill:none;stroke-width:1.2;stroke-linecap:butt;stroke-linejoin:miter;stroke:rgb(0%,0%,0%);stroke-opacity:1;stroke-miterlimit:10;" d="M 226.949219 97.8125 L 219.597656 119.636719 "/>
<path style="fill:none;stroke-width:1.2;stroke-linecap:butt;stroke-linejoin:miter;stroke:rgb(0%,0%,0%);stroke-opacity:1;stroke-miterlimit:10;" d="M 231.347656 101.722656 L 225.46875 119.183594 "/>
<path style="fill:none;stroke-width:1.2;stroke-linecap:butt;stroke-linejoin:miter;stroke:rgb(0%,0%,0%);stroke-opacity:1;stroke-miterlimit:10;" d="M 220.128906 180.5625 L 197.550781 185.113281 "/>
<path style="fill:none;stroke-width:1.2;stroke-linecap:butt;stroke-linejoin:miter;stroke:rgb(0%,0%,0%);stroke-opacity:1;stroke-miterlimit:10;" d="M 218.941406 186.332031 L 200.878906 189.96875 "/>
<path style="fill:none;stroke-width:1.2;stroke-linecap:butt;stroke-linejoin:miter;stroke:rgb(0%,0%,0%);stroke-opacity:1;stroke-miterlimit:10;" d="M 235.355469 197.839844 L 220.128906 180.5625 "/>
<path style="fill:none;stroke-width:1.2;stroke-linecap:butt;stroke-linejoin:miter;stroke:rgb(0%,0%,0%);stroke-opacity:1;stroke-miterlimit:10;" d="M 197.550781 185.113281 L 190.203125 206.9375 "/>
<path style="fill:none;stroke-width:1.2;stroke-linecap:butt;stroke-linejoin:miter;stroke:rgb(0%,0%,0%);stroke-opacity:1;stroke-miterlimit:10;" d="M 190.203125 206.9375 L 205.429688 224.214844 "/>
<path style="fill:none;stroke-width:1.2;stroke-linecap:butt;stroke-linejoin:miter;stroke:rgb(0%,0%,0%);stroke-opacity:1;stroke-miterlimit:10;" d="M 195.789062 205.082031 L 207.972656 218.902344 "/>
<path style="fill:none;stroke-width:1.2;stroke-linecap:butt;stroke-linejoin:miter;stroke:rgb(0%,0%,0%);stroke-opacity:1;stroke-miterlimit:10;" d="M 205.429688 224.214844 L 228.003906 219.667969 "/>
<path style="fill:none;stroke-width:1.2;stroke-linecap:butt;stroke-linejoin:miter;stroke:rgb(0%,0%,0%);stroke-opacity:1;stroke-miterlimit:10;" d="M 228.003906 219.667969 L 235.355469 197.839844 "/>
<path style="fill:none;stroke-width:1.2;stroke-linecap:butt;stroke-linejoin:miter;stroke:rgb(0%,0%,0%);stroke-opacity:1;stroke-miterlimit:10;" d="M 223.605469 215.753906 L 229.484375 198.292969 "/>
</g>
</svg>

<svg xmlns="http://www.w3.org/2000/svg" xmlns:xlink="http://www.w3.org/1999/xlink" width="300pt" height="300pt" viewBox="0 0 300 300"><defs><symbol overflow="visible"><path d="M.453 1.594v-7.938h4.5v7.938zm.5-.5h3.5v-6.938h-3.5zm0 0"/></symbol><symbol overflow="visible" id="a"><path d="M3.547-5.953c-.65 0-1.164.242-1.547.72-.375.48-.563 1.13-.563 1.952 0 .835.188 1.49.563 1.967.383.48.898.72 1.547.72.644 0 1.156-.24 1.53-.72.376-.476.564-1.132.564-1.968 0-.822-.187-1.474-.562-1.954-.375-.477-.887-.72-1.53-.72zm0-.734c.914 0 1.648.312 2.203.937.55.617.828 1.438.828 2.47 0 1.042-.277 1.87-.828 2.483-.555.617-1.29.922-2.203.922-.93 0-1.668-.305-2.22-.922C.774-1.41.5-2.237.5-3.28c0-1.033.273-1.853.828-2.47.55-.625 1.29-.938 2.22-.938zm0 0"/></symbol><symbol overflow="visible" id="b"><path d="M.89-6.563H2.08l2.906 5.485v-5.484h.86V0H4.656L1.75-5.484V0H.89zm0 0"/></symbol><symbol overflow="visible" id="c"><path d="M.89-6.563h.876v2.688H5v-2.688h.89V0H5v-3.125H1.766V0H.89zm0 0"/></symbol><symbol overflow="visible" id="d"><path d="M1.766-5.828v2.47H2.89c.407 0 .723-.11.954-.33.226-.218.344-.52.344-.906 0-.394-.118-.695-.344-.906-.23-.22-.547-.328-.953-.328zM.89-6.562h2c.727 0 1.282.167 1.657.5.383.335.578.824.578 1.468 0 .65-.195 1.137-.578 1.47-.375.323-.93.483-1.656.483H1.767V0H.89zm0 0"/></symbol></defs><g><path fill="#fff" d="M0 0h300v300H0z"/><path d="M35.25 100.773l13.336 18.774M48.586 119.547l-7.348 21.824M52.988 123.46l-5.88 17.458" stroke-width="1.2" stroke="#000" stroke-miterlimit="10" fill="none"/><path d="M71.613 119.793l-11.51-.12" stroke-width="1.2" stroke="#f00" stroke-miterlimit="10" fill="none"/><path d="M60.102 119.672l-11.516-.125M41.238 141.37l18.485 13.735M59.723 155.105L78.5 141.77M58.465 149.355l15.02-10.67M78.5 141.77l-3.44-10.99" stroke-width="1.2" stroke="#000" stroke-miterlimit="10" fill="none"/><path d="M75.06 130.78l-3.447-10.987" stroke-width="1.2" stroke="#f00" stroke-miterlimit="10" fill="none"/><path d="M78.5 141.77l21.824 7.347" stroke-width="1.2" stroke="#000" stroke-miterlimit="10" fill="none"/><path d="M67.613 114.293h8v11h-8zm0 0" fill="#fff"/><use xlink:href="#a" x="67.613" y="122.956" fill="#f00"/><path d="M100.324 149.117l8.637-7.613" stroke-width="1.2" stroke="#000" stroke-miterlimit="10" fill="none"/><path d="M108.96 141.504l8.642-7.613M117.602 133.89l10.91 3.676" stroke-width="1.2" stroke="#00f" stroke-miterlimit="10" fill="none"/><path d="M128.512 137.566l10.914 3.676" stroke-width="1.2" stroke="#000" stroke-miterlimit="10" fill="none"/><path d="M110.602 128.39h14v11h-14zm0 0" fill="#fff"/><g fill="#00f"><use xlink:href="#b" x="110.602" y="137.054"/><use xlink:href="#c" x="117.579" y="137.054"/></g><path d="M136.77 141.773l2.273 11.29" stroke-width="1.2" stroke="#000" stroke-miterlimit="10" fill="none"/><path d="M139.043 153.063l2.273 11.29" stroke-width="1.2" stroke="#f00" stroke-miterlimit="10" fill="none"/><path d="M142.082 140.707l2.273 11.285" stroke-width="1.2" stroke="#000" stroke-miterlimit="10" fill="none"/><path d="M144.355 151.992l2.274 11.29" stroke-width="1.2" stroke="#f00" stroke-miterlimit="10" fill="none"/><path d="M156.703 126.012l-19.965 12.18 5.375 6.097zm0 0"/><path d="M139.973 158.316h8v11h-8zm0 0" fill="#fff"/><use xlink:href="#a" x="139.973" y="166.979" fill="#f00"/><path d="M156.703 126.012l7.348-21.825M179.277 121.465l-22.574 4.547" stroke-width="1.2" stroke="#000" stroke-miterlimit="10" fill="none"/><path d="M179.277 121.465m-1.562-2.56l-.78.69m-.783-3.25l-1.562 1.378m0-3.942l-2.344 2.072m.78-4.63l-3.128 2.758m1.567-5.32l-3.91 3.445m2.35-6.007l-4.694 4.136m3.134-6.695l-5.477 4.823m4.235-6.863l-6.098 5.375" stroke="#000" stroke-miterlimit="10" fill="none"/><path d="M179.277 121.465l21.825 7.347" stroke-width="1.2" stroke="#000" stroke-miterlimit="10" fill="none"/><path d="M201.102 128.813l19.964-12.176-5.375-6.098zm0 0"/><path d="M201.102 128.813l2.277 11.29" stroke-width="1.2" stroke="#000" stroke-miterlimit="10" fill="none"/><path d="M203.38 140.102l2.272 11.29" stroke-width="1.2" stroke="#00f" stroke-miterlimit="10" fill="none"/><path d="M218.38 113.586l21.827 7.352M222.293 109.188l17.457 5.878M213.832 91.012l4.547 22.574M240.207 120.938l17.273-15.227M257.48 105.71l-4.546-22.577M251.715 104.523l-3.637-18.062M252.934 83.133l-21.825-7.348M231.11 75.785L213.83 91.012M232.965 81.375l-13.824 12.18" stroke-width="1.2" stroke="#000" stroke-miterlimit="10" fill="none"/><path d="M205.652 151.39l10.91 3.676" stroke-width="1.2" stroke="#00f" stroke-miterlimit="10" fill="none"/><path d="M216.563 155.066l10.914 3.672" stroke-width="1.2" stroke="#ff7f00" stroke-miterlimit="10" fill="none"/><path d="M198.652 145.89h14v11h-14zm0 0" fill="#fff"/><g fill="#00f"><use xlink:href="#b" x="198.652" y="154.554"/><use xlink:href="#c" x="205.63" y="154.554"/></g><path d="M226.613 161.31l10.91 3.67" stroke-width="1.2" stroke="#ff7f00" stroke-miterlimit="10" fill="none"/><path d="M237.523 164.98l10.915 3.676" stroke-width="1.2" stroke="#f00" stroke-miterlimit="10" fill="none"/><path d="M228.34 156.172l10.914 3.676" stroke-width="1.2" stroke="#ff7f00" stroke-miterlimit="10" fill="none"/><path d="M239.254 159.848l10.914 3.672" stroke-width="1.2" stroke="#f00" stroke-miterlimit="10" fill="none"/><path d="M227.477 158.738l3.675-10.91" stroke-width="1.2" stroke="#ff7f00" stroke-miterlimit="10" fill="none"/><path d="M231.152 147.828l3.672-10.914" stroke-width="1.2" stroke="#000" stroke-miterlimit="10" fill="none"/><path d="M227.477 158.738l-3.676 10.914" stroke-width="1.2" stroke="#ff7f00" stroke-miterlimit="10" fill="none"/><path d="M223.8 169.652l-3.67 10.91" stroke-width="1.2" stroke="#000" stroke-miterlimit="10" fill="none"/><path d="M224.477 153.238h6v11h-6zm0 0" fill="#fff"/><use xlink:href="#d" x="224.477" y="161.901" fill="#ff7f00"/><path d="M245.3 160.59h8v11h-8zm0 0" fill="#fff"/><use xlink:href="#a" x="245.301" y="169.253" fill="#f00"/><path d="M234.824 136.914l22.578-4.547M236.012 131.148l18.062-3.64M219.598 119.637l15.226 17.277M257.402 132.367l7.348-21.828M264.75 110.54L249.523 93.26M259.164 112.395l-12.184-13.82M249.523 93.262l-22.574 4.55M226.95 97.813l-7.352 21.824M231.348 101.723l-5.88 17.46M220.13 180.563l-22.58 4.55M218.94 186.332l-18.06 3.637M235.355 197.84l-15.226-17.278M197.55 185.113l-7.347 21.825M190.203 206.938l15.227 17.277M195.79 205.082l12.183 13.82M205.43 224.215l22.574-4.547M228.004 219.668l7.35-21.828M223.605 215.754l5.88-17.46" stroke-width="1.2" stroke="#000" stroke-miterlimit="10" fill="none"/></g></svg>
